packages/bezier-icons/icons/print.svg

<svg width="24" height="24" viewBox="0 0 24 24" fill="none" xmlns="http://www.w3.org/2000/svg">
<path fill-rule="evenodd" clip-rule="evenodd" d="M6.10899 3.54601C6 3.75992 6 4.03995 6 4.6V7H5.4C4.55992 7 4.13988 7 3.81901 7.16349C3.53677 7.3073 3.3073 7.53677 3.16349 7.81901C3 8.13988 3 8.55992 3 9.4V14.6C3 15.4401 3 15.8601 3.16349 16.181C3.3073 16.4632 3.53677 16.6927 3.81901 16.8365C4.13988 17 4.55992 17 5.4 17H6V19.4C6 19.9601 6 20.2401 6.10899 20.454C6.20487 20.6422 6.35785 20.7951 6.54601 20.891C6.75992 21 7.03995 21 7.6 21H16.4C16.9601 21 17.2401 21 17.454 20.891C17.6422 20.7951 17.7951 20.6422 17.891 20.454C18 20.2401 18 19.9601 18 19.4V17H18.6C19.4401 17 19.8601 17 20.181 16.8365C20.4632 16.6927 20.6927 16.4632 20.8365 16.181C21 15.8601 21 15.4401 21 14.6V9.4C21 8.55992 21 8.13988 20.8365 7.81901C20.6927 7.53677 20.4632 7.3073 20.181 7.16349C19.8601 7 19.4401 7 18.6 7H18V4.6C18 4.03995 18 3.75992 17.891 3.54601C17.7951 3.35785 17.6422 3.20487 17.454 3.10899C17.2401 3 16.9601 3 16.4 3H7.6C7.03995 3 6.75992 3 6.54601 3.10899C6.35785 3.20487 6.20487 3.35785 6.10899 3.54601ZM16 5H8V7H16V5ZM16 14H8V19H16V14ZM16 11C16 10.4477 16.4477 10 17 10C17.5523 10 18 10.4477 18 11C18 11.5523 17.5523 12 17 12C16.4477 12 16 11.5523 16 11Z" fill="#313234"/>
</svg>

<svg xmlns="http://www.w3.org/2000/svg" width="24" height="24" fill="none" viewBox="0 0 24 24"><path fill="#313234" fill-rule="evenodd" d="M6.109 3.546C6 3.76 6 4.04 6 4.6V7h-.6c-.84 0-1.26 0-1.581.163a1.5 1.5 0 0 0-.656.656C3 8.139 3 8.559 3 9.4v5.2c0 .84 0 1.26.163 1.581a1.5 1.5 0 0 0 .656.656c.32.163.74.163 1.581.163H6v2.4c0 .56 0 .84.109 1.054a1 1 0 0 0 .437.437C6.76 21 7.04 21 7.6 21h8.8c.56 0 .84 0 1.054-.109a1 1 0 0 0 .437-.437C18 20.24 18 19.96 18 19.4V17h.6c.84 0 1.26 0 1.581-.163a1.5 1.5 0 0 0 .656-.656c.163-.32.163-.74.163-1.581V9.4c0-.84 0-1.26-.163-1.581a1.5 1.5 0 0 0-.656-.656C19.861 7 19.441 7 18.6 7H18V4.6c0-.56 0-.84-.109-1.054a1 1 0 0 0-.437-.437C17.24 3 16.96 3 16.4 3H7.6c-.56 0-.84 0-1.054.109a1 1 0 0 0-.437.437M16 5H8v2h8zm0 9H8v5h8zm0-3a1 1 0 1 1 2 0 1 1 0 0 1-2 0" clip-rule="evenodd"/></svg>
